packages/components/icon/src/assets/icons/users-assign.svg

<svg width="24" height="24" viewBox="0 0 24 24" fill="none" xmlns="http://www.w3.org/2000/svg">
<path fill-rule="evenodd" clip-rule="evenodd" d="M12.7803 8.97512C12.7803 7.81809 13.1455 6.92141 13.8758 6.28504C14.6062 5.64867 15.4306 5.20033 16.349 4.94C17.2674 4.67967 17.7266 4.58566 17.7266 4.65797V2.81396L22.022 5.89454L17.7266 8.97512V6.97925C16.8733 6.97925 16.2297 7.01541 15.7958 7.08773C15.0871 7.1745 14.5086 7.35529 14.0602 7.63008C13.6119 7.90488 13.2865 8.18328 13.084 8.46531C12.8815 8.74733 12.7803 8.91727 12.7803 8.97512ZM3.19144 20.9503C2.85879 20.9503 2.57315 20.831 2.33452 20.5924C2.09588 20.3537 1.97656 20.0681 1.97656 19.7355V16.8935C1.97656 16.3295 2.1935 15.8016 2.62739 15.3098C3.06128 14.8181 3.65786 14.3987 4.41716 14.0516C5.17646 13.7045 6.03338 13.4731 6.98793 13.3574C6.3371 13.0681 5.81282 12.6234 5.4151 12.0232C5.01737 11.4229 4.8185 10.7541 4.8185 10.0164C4.8185 9.36561 4.98121 8.75818 5.30662 8.19413C5.63204 7.63008 6.07315 7.18535 6.62997 6.85994C7.18679 6.53452 7.79784 6.37182 8.46313 6.37182C9.11396 6.37182 9.71778 6.53452 10.2746 6.85994C10.8314 7.18535 11.2725 7.63008 11.5979 8.19413C11.9234 8.75818 12.0861 9.36561 12.0861 10.0164C12.0861 10.7541 11.8872 11.4229 11.4895 12.0232C11.0917 12.6234 10.5675 13.0681 9.91665 13.3574C10.8712 13.4731 11.7281 13.7045 12.4874 14.0516C13.2467 14.3987 13.8433 14.8181 14.2772 15.3098C14.7111 15.8016 14.928 16.3295 14.928 16.8935V19.7355C14.928 20.0681 14.8087 20.3537 14.5701 20.5924C14.3314 20.831 14.0458 20.9503 13.7131 20.9503H3.19144Z" fill="currentColor"/>
</svg>

<svg viewBox="0 0 24 24" fill="none" xmlns="http://www.w3.org/2000/svg"><path fill-rule="evenodd" clip-rule="evenodd" d="M12.78 8.975c0-1.157.366-2.054 1.096-2.69a6.367 6.367 0 0 1 2.473-1.345c.918-.26 1.378-.354 1.378-.282V2.814l4.295 3.08-4.295 3.081V6.98c-.854 0-1.497.036-1.931.109-.709.087-1.287.267-1.736.542-.448.275-.774.553-.976.835-.202.282-.304.452-.304.51ZM3.191 20.95a1.17 1.17 0 0 1-.856-.358 1.17 1.17 0 0 1-.358-.857v-2.841c0-.564.216-1.092.65-1.584.434-.492 1.03-.911 1.79-1.258.76-.348 1.616-.579 2.57-.695a3.613 3.613 0 0 1-1.572-1.334 3.554 3.554 0 0 1-.596-2.007c0-.65.162-1.258.488-1.822a3.604 3.604 0 0 1 3.156-1.822c.651 0 1.255.163 1.812.488.556.325.998.77 1.323 1.334a3.59 3.59 0 0 1 .488 1.822c0 .738-.199 1.407-.597 2.007a3.613 3.613 0 0 1-1.572 1.334c.954.116 1.811.348 2.57.695.76.347 1.356.766 1.79 1.258.434.492.651 1.02.651 1.583v2.842c0 .333-.12.619-.358.857a1.17 1.17 0 0 1-.857.358H3.191Z" fill="currentColor"/></svg>
